packages/icons/svg/Outline/moon.svg

<svg fill="none" height="24" viewBox="0 0 24 24" width="24" xmlns="http://www.w3.org/2000/svg"><path clip-rule="evenodd" d="m7.44091 4.91804c-.5.354-.959.764-1.375 1.228-2.849 3.171-2.756 8.24496.207 11.30996 1.566 1.621 3.67 2.525 5.92399 2.544.025.001.051.001.077.001 2.225 0 4.314-.863 5.89-2.436.328-.327.626-.678.893-1.052-3.146.392-6.371-.662-8.662-2.948-2.28999-2.286-3.34999-5.50396-2.95399-8.64696zm4.83299 17.08296c-.032 0-.063 0-.095-.001-2.79397-.024-5.40297-1.144-7.34397-3.153-3.677-3.805-3.792-10.10196-.258-14.03696 1.101-1.227 2.445-2.15 3.994-2.743.365-.142.78-.054 1.059.222.279.275.37197.688.237 1.056-1.118 3.055-.356 6.511 1.94097 8.80396 2.298 2.293 5.763 3.054 8.828 1.938.368-.136.782-.04 1.056.238.274.281.361.695.22 1.06-.524 1.363-1.31 2.573-2.336 3.596-1.953 1.95-4.543 3.02-7.302 3.02z" fill="#6b7280" fill-rule="evenodd"/></svg>

<svg width="24" height="24" viewBox="0 0 24 24" fill="none" xmlns="http://www.w3.org/2000/svg">
<g id="Icon/Outline/moon">
<path id="Mask" fill-rule="evenodd" clip-rule="evenodd" d="M7.44093 4.91804C6.94093 5.27204 6.48193 5.68204 6.06593 6.14604C3.21693 9.31704 3.30993 14.391 6.27293 17.456C7.83893 19.077 9.94293 19.981 12.1969 20C12.2219 20.001 12.2479 20.001 12.2739 20.001C14.4989 20.001 16.5879 19.138 18.1639 17.565C18.4919 17.238 18.7899 16.887 19.0569 16.513C15.9109 16.905 12.6859 15.851 10.3949 13.565C8.10493 11.279 7.04493 8.06104 7.44093 4.91804ZM12.2739 22.001C12.2419 22.001 12.2109 22.001 12.1789 22C9.38493 21.976 6.77593 20.856 4.83493 18.847C1.15793 15.042 1.04293 8.74504 4.57693 4.81004C5.67793 3.58304 7.02193 2.66004 8.57093 2.06704C8.93593 1.92504 9.35093 2.01304 9.62993 2.28904C9.90893 2.56404 10.0019 2.97704 9.86693 3.34504C8.74893 6.40004 9.51093 9.85604 11.8079 12.149C14.1059 14.442 17.5709 15.203 20.6359 14.087C21.0039 13.951 21.4179 14.047 21.6919 14.325C21.9659 14.606 22.0529 15.02 21.9119 15.385C21.3879 16.748 20.6019 17.958 19.5759 18.981C17.6229 20.931 15.0329 22.001 12.2739 22.001Z" fill="#000000"/>
</g>
</svg>
